icons-common/plus.svg

<svg height="1em" width="auto" viewBox="0 0 105 105" fill="currentColor" xmlns="http://www.w3.org/2000/svg">
    <path d="M32.6674 48.548C46.7419 47.1012 60.8598 47.1012 74.9343 48.548C77.0194 48.8033 78.5398 50.6757 78.2791 52.7182C78.0619 54.4629 76.6284 55.782 74.9343 55.9948C67.897 56.8459 60.8598 57.0161 53.8226 57.0586C46.7853 57.0586 39.7481 56.8459 32.7109 55.9948C30.6258 55.7395 29.1054 53.8671 29.366 51.8246C29.5832 50.0799 31.0167 48.7608 32.7109 48.548H32.6674Z"
          />
    <path d="M57.5585 31.6122C59.0355 45.3994 59.0355 59.2292 57.5585 73.0164C57.2979 75.059 55.3866 76.5483 53.3015 76.293C51.5204 76.0802 50.1738 74.676 49.9566 73.0164C49.0878 66.1228 48.914 59.2292 48.8706 52.3356C48.8706 45.4419 49.0878 38.5483 49.9566 31.6547C50.2172 29.6122 52.1286 28.1228 54.2137 28.3781C55.9947 28.5909 57.3414 29.9951 57.5585 31.6547V31.6122Z"
          />
</svg>

<svg xmlns="http://www.w3.org/2000/svg" width="auto" height="1em" fill="currentColor" viewBox="0 0 105 105">
    <path d="M32.667 48.548a206.3 206.3 0 0 1 42.267 0c2.085.255 3.606 2.128 3.345 4.17-.217 1.745-1.65 3.064-3.345 3.277-7.037.85-14.074 1.021-21.111 1.064-7.038 0-14.075-.213-21.112-1.064-2.085-.255-3.606-2.128-3.345-4.17.217-1.745 1.65-3.064 3.345-3.277z"/>
    <path d="M57.559 31.612a194 194 0 0 1 0 41.404c-.261 2.043-2.172 3.532-4.257 3.277-1.782-.213-3.128-1.617-3.345-3.277-.87-6.893-1.043-13.787-1.086-20.68 0-6.894.217-13.788 1.086-20.681.26-2.043 2.172-3.532 4.257-3.277 1.78.213 3.127 1.617 3.345 3.277z"/>
</svg>
